Sweet-Rainbow/icons/disk-burner.svg

<?xml version="1.0" encoding="UTF-8" standalone="no"?>
<!-- Generator: Gravit.io -->

<svg
   xmlns:dc="http://purl.org/dc/elements/1.1/"
   xmlns:cc="http://creativecommons.org/ns#"
   xmlns:rdf="http://www.w3.org/1999/02/22-rdf-syntax-ns#"
   xmlns:svg="http://www.w3.org/2000/svg"
   xmlns="http://www.w3.org/2000/svg"
   xmlns:sodipodi="http://sodipodi.sourceforge.net/DTD/sodipodi-0.dtd"
   xmlns:inkscape="http://www.inkscape.org/namespaces/inkscape"
   style="isolation:isolate"
   viewBox="0 0 36 36"
   width="48"
   height="48"
   version="1.1"
   id="svg16"
   sodipodi:docname="disk-burner.svg"
   inkscape:version="0.92.4 (5da689c313, 2019-01-14)">
  <metadata
     id="metadata22">
    <rdf:RDF>
      <cc:Work
         rdf:about="">
        <dc:format>image/svg+xml</dc:format>
        <dc:type
           rdf:resource="http://purl.org/dc/dcmitype/StillImage" />
        <dc:title></dc:title>
      </cc:Work>
    </rdf:RDF>
  </metadata>
  <defs
     id="defs20" />
  <sodipodi:namedview
     pagecolor="#ffffff"
     bordercolor="#666666"
     borderopacity="1"
     objecttolerance="10"
     gridtolerance="10"
     guidetolerance="10"
     inkscape:pageopacity="0"
     inkscape:pageshadow="2"
     inkscape:window-width="640"
     inkscape:window-height="480"
     id="namedview18"
     showgrid="false"
     inkscape:zoom="29.365243"
     inkscape:cx="25.325443"
     inkscape:cy="32"
     inkscape:current-layer="svg16"
     units="px" />
  <linearGradient
     id="_lgradient_14"
     x1="0.62099254"
     y1="0.043614805"
     x2="0.4883253"
     y2="0.96253371"
     gradientTransform="matrix(14.133,0,0,18.5,30.723,27.568)"
     gradientUnits="userSpaceOnUse">
    <stop
       offset="0%"
       stop-opacity="1"
       style="stop-color:rgb(255,224,49)"
       id="stop2" />
    <stop
       offset="100%"
       stop-opacity="1"
       style="stop-color:rgb(250,0,117)"
       id="stop4" />
  </linearGradient>
  <linearGradient
     id="_lgradient_15"
     x1="0.061897106"
     y1="0.14716151"
     x2="0.99042481"
     y2="0.98658085"
     gradientTransform="matrix(47,0,0,47,0.5,0.5)"
     gradientUnits="userSpaceOnUse">
    <stop
       offset="0%"
       stop-opacity="1"
       style="stop-color:rgb(22,181,228)"
       id="stop9" />
    <stop
       offset="98.26086956521739%"
       stop-opacity="1"
       style="stop-color:rgb(245,32,250)"
       id="stop11" />
  </linearGradient>
  <g
     id="g831"
     transform="matrix(0.76595745,0,0,0.76595745,-0.3829788,-0.3829788)">
    <path
       id="path7"
       d="m 39.974,27.569 c -5.782,2.313 -9.251,7.731 -9.251,11.563 0,3.786 3.035,6.858 6.805,6.93 -1.884,-0.037 -3.401,-1.569 -3.401,-3.462 0,-1.915 1.734,-4.625 4.625,-5.781 0,4.047 3.103,4.632 2.312,6.938 -0.448,1.307 -1.542,2.299 -3.439,2.31 0.011,0 0.024,10e-4 0.036,10e-4 3.831,0 6.035,-1.996 6.937,-4.625 1.583,-4.611 -4.625,-5.781 -4.625,-13.875 z"
       inkscape:connector-curvature="0"
       style="fill:url(#_lgradient_14)" />
    <path
       id="path14"
       d="m 26.89,43.29 v 0 c 1.093,-0.166 2.112,0.587 2.275,1.68 v 0 c 0.163,1.093 -0.592,2.11 -1.685,2.27 v 0 C 26.33,47.41 25.16,47.5 24,47.5 17.77,47.5 11.79,45.02 7.38,40.62 2.98,36.21 0.5,30.23 0.5,24 0.5,17.77 2.98,11.79 7.38,7.38 11.79,2.98 17.77,0.5 24,0.5 c 6.23,0 12.21,2.48 16.62,6.88 4.4,4.41 6.88,10.39 6.88,16.62 0,1.7 -0.18,3.4 -0.55,5.07 v 0 c -0.237,1.076 -1.304,1.757 -2.38,1.52 v 0 c -1.076,-0.237 -1.762,-1.304 -1.53,-2.38 v 0 C 43.35,26.83 43.5,25.42 43.5,24 43.5,18.83 41.44,13.87 37.79,10.21 34.13,6.56 29.17,4.5 24,4.5 18.83,4.5 13.87,6.56 10.21,10.21 6.56,13.87 4.5,18.83 4.5,24 c 0,5.17 2.06,10.13 5.71,13.79 3.66,3.65 8.62,5.71 13.79,5.71 0.97,0 1.93,-0.07 2.89,-0.21 z m -7.12,-4.38 v 0 c 0.53,0.155 0.837,0.71 0.685,1.24 v 0 c -0.152,0.53 -0.705,0.839 -1.235,0.69 v 0 C 15.56,39.8 12.33,37.59 10.04,34.55 7.74,31.51 6.5,27.81 6.5,24 c 0,-2.46 0.52,-4.9 1.53,-7.15 v 0 c 0.221,-0.502 0.81,-0.729 1.315,-0.505 v 0 c 0.505,0.224 0.731,0.817 0.505,1.325 v 0 C 8.96,19.66 8.5,21.82 8.5,24 c 0,3.37 1.1,6.65 3.13,9.35 2.03,2.69 4.89,4.64 8.14,5.56 z M 25.69,8.59 v 0 C 25.144,8.529 24.747,8.034 24.805,7.485 v 0 C 24.863,6.936 25.358,6.539 25.91,6.6 v 0 c 4.28,0.47 8.25,2.51 11.12,5.72 2.88,3.21 4.47,7.37 4.47,11.68 0,0.01 0,0.01 0,0.02 l -0.01,0.65 v 0 c -0.011,0.552 -0.468,0.993 -1.02,0.985 v 0 C 39.918,25.647 39.479,25.192 39.49,24.64 v 0 l 0.01,-0.65 c 0,-3.82 -1.41,-7.5 -3.96,-10.34 C 32.99,10.81 29.48,9.01 25.69,8.59 Z M 19.5,24 c 0,-1.19 0.47,-2.34 1.32,-3.18 0.84,-0.85 1.99,-1.32 3.18,-1.32 1.19,0 2.34,0.47 3.18,1.32 0.85,0.84 1.32,1.99 1.32,3.18 v 0 c 0,1.19 -0.47,2.34 -1.32,3.18 -0.84,0.85 -1.99,1.32 -3.18,1.32 v 0 c -1.19,0 -2.34,-0.47 -3.18,-1.32 C 19.97,26.34 19.5,25.19 19.5,24 Z m -4,0 c 0,-2.25 0.9,-4.42 2.49,-6.01 1.59,-1.59 3.76,-2.49 6.01,-2.49 2.25,0 4.42,0.9 6.01,2.49 1.59,1.59 2.49,3.76 2.49,6.01 v 0 c 0,2.25 -0.9,4.42 -2.49,6.01 C 28.42,31.6 26.25,32.5 24,32.5 v 0 c -2.25,0 -4.42,-0.9 -6.01,-2.49 C 16.4,28.42 15.5,26.25 15.5,24 Z"
       inkscape:connector-curvature="0"
       style="fill:url(#_lgradient_15);fill-rule:evenodd" />
  </g>
</svg>

<?xml version="1.0" encoding="UTF-8" standalone="no"?><!-- Generator: Gravit.io --><svg xmlns="http://www.w3.org/2000/svg" xmlns:xlink="http://www.w3.org/1999/xlink" style="isolation:isolate" viewBox="0 0 48 48" width="48pt" height="48pt"><linearGradient id="_lgradient_14" x1="0.6209925156173352" y1="0.04361480303477505" x2="0.48832528358078464" y2="0.9625337219536944" gradientTransform="matrix(14.133,0,0,18.5,30.723,27.568)" gradientUnits="userSpaceOnUse"><stop offset="0%" stop-opacity="1" style="stop-color:rgb(255,224,49)"/><stop offset="100%" stop-opacity="1" style="stop-color:rgb(250,0,117)"/></linearGradient><path d=" M 39.974 27.569 C 34.192 29.882 30.723 35.3 30.723 39.132 C 30.723 42.918 33.758 45.99 37.528 46.062 C 35.644 46.025 34.127 44.493 34.127 42.6 C 34.127 40.685 35.861 37.975 38.752 36.819 C 38.752 40.866 41.855 41.451 41.064 43.757 C 40.616 45.064 39.522 46.056 37.625 46.067 C 37.636 46.067 37.649 46.068 37.661 46.068 C 41.492 46.068 43.696 44.072 44.598 41.443 C 46.181 36.832 39.973 35.662 39.973 27.568 L 39.974 27.569 Z " fill="url(#_lgradient_14)"/><linearGradient id="_lgradient_15" x1="0.061897106109324806" y1="0.14716151924516707" x2="0.9904248356713994" y2="0.9865808764728623" gradientTransform="matrix(47,0,0,47,0.5,0.5)" gradientUnits="userSpaceOnUse"><stop offset="0%" stop-opacity="1" style="stop-color:rgb(22,181,228)"/><stop offset="98.26086956521739%" stop-opacity="1" style="stop-color:rgb(245,32,250)"/></linearGradient><path d=" M 26.89 43.29 L 26.89 43.29 C 27.983 43.124 29.002 43.877 29.165 44.97 L 29.165 44.97 C 29.328 46.063 28.573 47.08 27.48 47.24 L 27.48 47.24 C 26.33 47.41 25.16 47.5 24 47.5 C 17.77 47.5 11.79 45.02 7.38 40.62 C 2.98 36.21 0.5 30.23 0.5 24 C 0.5 17.77 2.98 11.79 7.38 7.38 C 11.79 2.98 17.77 0.5 24 0.5 C 30.23 0.5 36.21 2.98 40.62 7.38 C 45.02 11.79 47.5 17.77 47.5 24 C 47.5 25.7 47.32 27.4 46.95 29.07 L 46.95 29.07 C 46.713 30.146 45.646 30.827 44.57 30.59 L 44.57 30.59 C 43.494 30.353 42.808 29.286 43.04 28.21 L 43.04 28.21 C 43.35 26.83 43.5 25.42 43.5 24 C 43.5 18.83 41.44 13.87 37.79 10.21 C 34.13 6.56 29.17 4.5 24 4.5 C 18.83 4.5 13.87 6.56 10.21 10.21 C 6.56 13.87 4.5 18.83 4.5 24 C 4.5 29.17 6.56 34.13 10.21 37.79 C 13.87 41.44 18.83 43.5 24 43.5 C 24.97 43.5 25.93 43.43 26.89 43.29 L 26.89 43.29 L 26.89 43.29 Z  M 19.77 38.91 L 19.77 38.91 C 20.3 39.065 20.607 39.62 20.455 40.15 L 20.455 40.15 C 20.303 40.68 19.75 40.989 19.22 40.84 L 19.22 40.84 C 15.56 39.8 12.33 37.59 10.04 34.55 C 7.74 31.51 6.5 27.81 6.5 24 C 6.5 21.54 7.02 19.1 8.03 16.85 L 8.03 16.85 C 8.251 16.348 8.84 16.121 9.345 16.345 L 9.345 16.345 C 9.85 16.569 10.076 17.162 9.85 17.67 L 9.85 17.67 C 8.96 19.66 8.5 21.82 8.5 24 C 8.5 27.37 9.6 30.65 11.63 33.35 C 13.66 36.04 16.52 37.99 19.77 38.91 L 19.77 38.91 L 19.77 38.91 Z  M 25.69 8.59 L 25.69 8.59 C 25.144 8.529 24.747 8.034 24.805 7.485 L 24.805 7.485 C 24.863 6.936 25.358 6.539 25.91 6.6 L 25.91 6.6 C 30.19 7.07 34.16 9.11 37.03 12.32 C 39.91 15.53 41.5 19.69 41.5 24 C 41.5 24.01 41.5 24.01 41.5 24.02 L 41.49 24.67 L 41.49 24.67 C 41.479 25.222 41.022 25.663 40.47 25.655 L 40.47 25.655 C 39.918 25.647 39.479 25.192 39.49 24.64 L 39.49 24.64 L 39.5 23.99 C 39.5 20.17 38.09 16.49 35.54 13.65 C 32.99 10.81 29.48 9.01 25.69 8.59 L 25.69 8.59 Z  M 19.5 24 C 19.5 22.81 19.97 21.66 20.82 20.82 C 21.66 19.97 22.81 19.5 24 19.5 C 25.19 19.5 26.34 19.97 27.18 20.82 C 28.03 21.66 28.5 22.81 28.5 24 L 28.5 24 C 28.5 25.19 28.03 26.34 27.18 27.18 C 26.34 28.03 25.19 28.5 24 28.5 L 24 28.5 C 22.81 28.5 21.66 28.03 20.82 27.18 C 19.97 26.34 19.5 25.19 19.5 24 L 19.5 24 Z  M 15.5 24 C 15.5 21.75 16.4 19.58 17.99 17.99 C 19.58 16.4 21.75 15.5 24 15.5 C 26.25 15.5 28.42 16.4 30.01 17.99 C 31.6 19.58 32.5 21.75 32.5 24 L 32.5 24 C 32.5 26.25 31.6 28.42 30.01 30.01 C 28.42 31.6 26.25 32.5 24 32.5 L 24 32.5 C 21.75 32.5 19.58 31.6 17.99 30.01 C 16.4 28.42 15.5 26.25 15.5 24 L 15.5 24 Z " fill-rule="evenodd" fill="url(#_lgradient_15)"/></svg>
